X:1
T:Alfriston
C:Chris Walshaw
R:bourr\'ee (3-time)
M:3/8
K:F
^FG|A2B2G2|^F2DEFG|A2B2G2|
^F4D2|~G6|~A6|[1 B2d2c2|A4:|[2 A2GAG^F|G4|]
K:D
FG|A2F2d2|B2G2d2|ABAGFG|A2FEFG|
A2F2d2|B2G2d2|ABAGFE|[1 DEFE:|[2 D4|]

